papirus/22x22/apps/kodi.svg

<svg height="22" viewBox="0 0 44.000001 44.000001" width="22" xmlns="http://www.w3.org/2000/svg"><g transform="translate(-2.0000002 -2.0000002)"><rect fill="#fff" height="29.431103" rx="1.9620736" transform="matrix(.70710678 .70710678 -.70710678 .70710678 0 0)" width="29.431103" x="19.225574" y="-14.715551"/><path d="m23.972894 3.9996382c-.472731.00745-.923976.1987102-1.258066.5332278l-4.302341 4.3014607v17.2179023l14.19686-14.19718-7.324416-7.3221528c-.34732-.3477406-.82062-.5400896-1.312067-.5332276zm-11.973627 11.2485898l-7.4671912 7.467391c-.7091905.70996-.7091911 1.860173-.0000005 2.570133l7.3221527 7.324415.145007-.144006zm25.560538 1.557279l-8.493445 8.492447 7.196178 7.195176 7.205388-7.207368c.709189-.70996.709189-1.860174 0-2.570134zm-13.443286 13.442288l-7.311801 7.3128 5.9101 5.90812c.709982.709059 1.860152.709059 2.570135 0l6.027723-6.025743z" fill="#31afe1"/><path d="m12 2c-.250772 0-.501205.096908-.693359.2890625l-9.0175785 9.0175785c-.2572168.257216-.3273268.616673-.2402344.943359.0430327-.161417.1131427-.316268.2402344-.443359l9.0175785-9.0175785c.384308-.3843086 1.00241-.3843086 1.386718 0l9.017579 9.0175785c.127091.127091.197201.281942.240234.443359.08709-.326686.01698-.686143-.240234-.943359l-9.017579-9.0175785c-.192154-.1921543-.442587-.2890625-.693359-.2890625z" fill="#fff" opacity=".2" transform="scale(2)"/><path d="m2.0488281 11.75c-.087092.326686-.016982.686143.2402344.943359l9.0175785 9.017579c.384308.384308 1.00241.384308 1.386718 0l9.017579-9.017579c.257216-.257216.327326-.616673.240234-.943359-.04303.161417-.113143.316268-.240234.443359l-9.017579 9.017579c-.384308.384308-1.00241.384308-1.386718 0l-9.0175785-9.017579c-.1270917-.127091-.1972017-.281942-.2402344-.443359z" opacity=".3" transform="scale(2)"/></g></svg>

<?xml version="1.0" encoding="UTF-8" standalone="no"?>
<!-- Created with Inkscape (http://www.inkscape.org/) -->

<svg
   xmlns:dc="http://purl.org/dc/elements/1.1/"
   xmlns:cc="http://creativecommons.org/ns#"
   xmlns:rdf="http://www.w3.org/1999/02/22-rdf-syntax-ns#"
   xmlns:svg="http://www.w3.org/2000/svg"
   xmlns="http://www.w3.org/2000/svg"
   xmlns:sodipodi="http://sodipodi.sourceforge.net/DTD/sodipodi-0.dtd"
   xmlns:inkscape="http://www.inkscape.org/namespaces/inkscape"
   id="svg4163"
   height="22"
   width="22"
   version="1.1"
   viewBox="0 0 44.000001 44.000001"
   inkscape:version="0.91 r13725"
   sodipodi:docname="kodi.svg">
  <defs
     id="defs10" />
  <sodipodi:namedview
     pagecolor="#676767"
     bordercolor="#666666"
     borderopacity="1"
     objecttolerance="10"
     gridtolerance="10"
     guidetolerance="10"
     inkscape:pageopacity="0"
     inkscape:pageshadow="2"
     inkscape:window-width="1600"
     inkscape:window-height="849"
     id="namedview8"
     showgrid="false"
     inkscape:zoom="16.15"
     inkscape:cx="12.977134"
     inkscape:cy="10.536043"
     inkscape:window-x="0"
     inkscape:window-y="0"
     inkscape:window-maximized="1"
     inkscape:current-layer="svg4163" />
  <metadata
     id="metadata4168">
    <rdf:RDF>
      <cc:Work
         rdf:about="">
        <dc:format>image/svg+xml</dc:format>
        <dc:type
           rdf:resource="http://purl.org/dc/dcmitype/StillImage" />
        <dc:title></dc:title>
      </cc:Work>
    </rdf:RDF>
  </metadata>
  <g
     id="g4147"
     transform="translate(-2.0000002,-2.0000002)">
    <rect
       transform="matrix(0.70710678,0.70710678,-0.70710678,0.70710678,0,0)"
       ry="1.9620736"
       rx="1.9620736"
       y="-14.715551"
       x="19.225574"
       height="29.431103"
       width="29.431103"
       id="rect4135"
       style="opacity:1;fill:#ffffff;fill-opacity:1;stroke:none;stroke-width:4;stroke-linecap:round;stroke-linejoin:round;stroke-miterlimit:4;stroke-dasharray:none;stroke-opacity:1" />
    <path
       sodipodi:nodetypes="cccccccccccccccccccccccccc"
       id="rect4762"
       style="color:#000000;text-indent:0;text-decoration:none;text-decoration-line:none;text-decoration-style:solid;text-decoration-color:#000000;text-transform:none;block-progression:tb;white-space:normal;isolation:auto;mix-blend-mode:normal;solid-color:#000000;fill:#31afe1;color-rendering:auto;image-rendering:auto;shape-rendering:auto"
       d="m 23.972894,3.9996382 c -0.472731,0.00745 -0.923976,0.1987102 -1.258066,0.5332278 l -4.302341,4.3014607 0,17.2179023 14.19686,-14.19718 -7.324416,-7.3221528 C 24.937611,4.1851556 24.464311,3.9928066 23.972864,3.9996686 Z M 11.999267,15.248228 4.5320758,22.715619 c -0.7091905,0.70996 -0.7091911,1.860173 -5e-7,2.570133 l 7.3221527,7.324415 0.145007,-0.144006 z m 25.560538,1.557279 -8.493445,8.492447 7.196178,7.195176 7.205388,-7.207368 c 0.709189,-0.70996 0.709189,-1.860174 0,-2.570134 z m -13.443286,13.442288 -7.311801,7.3128 5.9101,5.90812 c 0.709982,0.709059 1.860152,0.709059 2.570135,0 l 6.027723,-6.025743 z"
       inkscape:connector-curvature="0" />
    <path
       id="rect4137"
       transform="scale(2,2)"
       d="M 12,2 C 11.749228,2 11.498795,2.096908 11.306641,2.2890625 L 2.2890625,11.306641 C 2.0318457,11.563857 1.9617357,11.923314 2.0488281,12.25 2.0918608,12.088583 2.1619708,11.933732 2.2890625,11.806641 L 11.306641,2.7890625 c 0.384308,-0.3843086 1.00241,-0.3843086 1.386718,0 l 9.017579,9.0175785 c 0.127091,0.127091 0.197201,0.281942 0.240234,0.443359 0.08709,-0.326686 0.01698,-0.686143 -0.240234,-0.943359 L 12.693359,2.2890625 C 12.501205,2.0969082 12.250772,2 12,2 Z"
       style="opacity:0.2;fill:#ffffff;fill-opacity:1;stroke:none;stroke-width:4;stroke-linecap:round;stroke-linejoin:round;stroke-miterlimit:4;stroke-dasharray:none;stroke-opacity:1"
       inkscape:connector-curvature="0" />
    <path
       id="rect4142"
       transform="scale(2,2)"
       d="m 2.0488281,11.75 c -0.087092,0.326686 -0.016982,0.686143 0.2402344,0.943359 l 9.0175785,9.017579 c 0.384308,0.384308 1.00241,0.384308 1.386718,0 l 9.017579,-9.017579 c 0.257216,-0.257216 0.327326,-0.616673 0.240234,-0.943359 -0.04303,0.161417 -0.113143,0.316268 -0.240234,0.443359 l -9.017579,9.017579 c -0.384308,0.384308 -1.00241,0.384308 -1.386718,0 L 2.2890625,12.193359 C 2.1619708,12.066268 2.0918608,11.911417 2.0488281,11.75 Z"
       style="opacity:0.3;fill:#000000;fill-opacity:1;stroke:none;stroke-width:4;stroke-linecap:round;stroke-linejoin:round;stroke-miterlimit:4;stroke-dasharray:none;stroke-opacity:1"
       inkscape:connector-curvature="0" />
  </g>
</svg>
